assets/icons/actions/person_add.svg

<svg viewBox="0 0 24 24" xmlns="http://www.w3.org/2000/svg">
<path d="M19 14C18.7167 14 18.4793 13.904 18.288 13.712C18.096 13.5207 18 13.2833 18 13V11H16C15.7167 11 15.4793 10.904 15.288 10.712C15.096 10.5207 15 10.2833 15 10C15 9.71667 15.096 9.479 15.288 9.287C15.4793 9.09567 15.7167 9 16 9H18V7C18 6.71667 18.096 6.479 18.288 6.287C18.4793 6.09567 18.7167 6 19 6C19.2833 6 19.5207 6.09567 19.712 6.287C19.904 6.479 20 6.71667 20 7V9H22C22.2833 9 22.5207 9.09567 22.712 9.287C22.904 9.479 23 9.71667 23 10C23 10.2833 22.904 10.5207 22.712 10.712C22.5207 10.904 22.2833 11 22 11H20V13C20 13.2833 19.904 13.5207 19.712 13.712C19.5207 13.904 19.2833 14 19 14ZM9 12C7.9 12 6.95833 11.6083 6.175 10.825C5.39167 10.0417 5 9.1 5 8C5 6.9 5.39167 5.95833 6.175 5.175C6.95833 4.39167 7.9 4 9 4C10.1 4 11.0417 4.39167 11.825 5.175C12.6083 5.95833 13 6.9 13 8C13 9.1 12.6083 10.0417 11.825 10.825C11.0417 11.6083 10.1 12 9 12ZM2 20C1.71667 20 1.47933 19.904 1.288 19.712C1.096 19.5207 1 19.2833 1 19V17.2C1 16.6333 1.146 16.1123 1.438 15.637C1.72933 15.1623 2.11667 14.8 2.6 14.55C3.63333 14.0333 4.68333 13.6457 5.75 13.387C6.81667 13.129 7.9 13 9 13C10.1 13 11.1833 13.129 12.25 13.387C13.3167 13.6457 14.3667 14.0333 15.4 14.55C15.8833 14.8 16.2707 15.1623 16.562 15.637C16.854 16.1123 17 16.6333 17 17.2V19C17 19.2833 16.904 19.5207 16.712 19.712C16.5207 19.904 16.2833 20 16 20H2Z" fill="inherit"/>
</svg>

<svg viewBox="0 0 24 24" xmlns="http://www.w3.org/2000/svg"><path d="M19 14a1 1 0 0 1-.7-.3 1 1 0 0 1-.3-.7v-2h-2a1 1 0 0 1-.7-.3 1 1 0 0 1-.3-.7c0-.3.1-.5.3-.7.2-.2.4-.3.7-.3h2V7c0-.3.1-.5.3-.7.2-.2.4-.3.7-.3.3 0 .5.1.7.3.2.2.3.4.3.7v2h2c.3 0 .5.1.7.3.2.2.3.4.3.7 0 .3-.1.5-.3.7a1 1 0 0 1-.7.3h-2v2c0 .3-.1.5-.3.7a1 1 0 0 1-.7.3ZM9 12c-1.1 0-2-.4-2.8-1.2A3.9 3.9 0 0 1 5 8c0-1.1.4-2 1.2-2.8C7 4.4 7.9 4 9 4c1.1 0 2 .4 2.8 1.2C12.6 6 13 6.9 13 8c0 1.1-.4 2-1.2 2.8-.8.8-1.7 1.2-2.8 1.2Zm-7 8a1 1 0 0 1-.7-.3A1 1 0 0 1 1 19v-1.8c0-.6.1-1 .4-1.6a3 3 0 0 1 1.2-1A14.9 14.9 0 0 1 9 13a13.8 13.8 0 0 1 6.4 1.6c.5.2.9.6 1.2 1 .3.5.4 1 .4 1.6V19c0 .3-.1.5-.3.7a1 1 0 0 1-.7.3H2Z" fill="inherit"/></svg>
